src/assets/img/icons/dark/icon-different-lines.svg

<svg width="38" height="39" viewBox="0 0 38 39" fill="none" xmlns="http://www.w3.org/2000/svg">
<path d="M26.793 33.4395C27.8177 33.4395 28.6484 34.292 28.6484 35.3438C28.6484 36.3955 27.8177 37.248 26.793 37.248C25.7682 37.248 24.9375 36.3955 24.9375 35.3438C24.9375 34.292 25.7682 33.4395 26.793 33.4395ZM13.2109 20.0332C13.2109 21.0849 14.0417 21.9375 15.0664 21.9375C16.0911 21.9375 16.9219 21.0849 16.9219 20.0332C16.9219 18.9815 16.0911 18.1289 15.0664 18.1289C14.0417 18.1289 13.2109 18.9815 13.2109 20.0332Z" fill="#D34214"/>
<path d="M38 37.0957C38 38.1474 37.1693 39 36.1445 39C35.1198 39 34.2891 38.1474 34.2891 37.0957C34.2891 36.044 35.1198 35.1914 36.1445 35.1914C37.1693 35.1914 38 36.044 38 37.0957ZM32.0625 24.4512C32.0625 26.9712 30.0648 29.0215 27.6094 29.0215C25.1539 29.0215 23.1562 26.9712 23.1562 24.4512C23.1562 23.1119 23.7205 21.9054 24.6177 21.0688L21.4163 13.2337C21.0993 12.4578 21.4551 11.565 22.2111 11.2397C22.967 10.9144 23.8369 11.2795 24.154 12.0554L27.3547 19.8889C27.439 19.884 27.5238 19.8809 27.6093 19.8809C30.0648 19.8809 32.0625 21.9311 32.0625 24.4512ZM29.0938 24.4512C29.0938 23.6111 28.4279 22.9277 27.6094 22.9277C26.7909 22.9277 26.125 23.6111 26.125 24.4512C26.125 25.2912 26.7909 25.9746 27.6094 25.9746C28.4279 25.9746 29.0938 25.2912 29.0938 24.4512ZM6.16016 21.5566C5.13542 21.5566 4.30469 22.4092 4.30469 23.4609C4.30469 24.5126 5.13542 25.3652 6.16016 25.3652C7.18489 25.3652 8.01562 24.5126 8.01562 23.4609C8.01562 22.4092 7.18489 21.5566 6.16016 21.5566ZM0 12.2637C0 9.7436 1.99767 7.69336 4.45312 7.69336C6.90858 7.69336 8.90625 9.7436 8.90625 12.2637C8.90625 14.7837 6.90858 16.834 4.45312 16.834C1.99767 16.834 0 14.7837 0 12.2637ZM2.96875 12.2637C2.96875 13.1037 3.63464 13.7871 4.45312 13.7871C5.27161 13.7871 5.9375 13.1037 5.9375 12.2637C5.9375 11.4236 5.27161 10.7402 4.45312 10.7402C3.63464 10.7402 2.96875 11.4236 2.96875 12.2637ZM20.8859 27.2836C21.2062 28.0581 20.8542 28.9525 20.0996 29.2813L8.89801 34.1617C8.90306 34.2505 8.90632 34.3397 8.90632 34.4298C8.90632 36.9498 6.90865 39.0001 4.4532 39.0001C1.99775 39.0001 0 36.9498 0 34.4297C0 31.9096 1.99767 29.8594 4.45312 29.8594C5.75559 29.8594 6.92914 30.4363 7.74421 31.3542L18.9395 26.4766C19.6942 26.1479 20.5656 26.5092 20.8859 27.2836ZM5.9375 34.4297C5.9375 33.5897 5.27161 32.9062 4.45312 32.9062C3.63464 32.9062 2.96875 33.5897 2.96875 34.4297C2.96875 35.2697 3.63464 35.9531 4.45312 35.9531C5.27161 35.9531 5.9375 35.2697 5.9375 34.4297ZM28.6382 15.7821L30.874 8.22321C29.7937 7.3886 29.0938 6.06183 29.0938 4.57031C29.0938 2.05024 31.0914 0 33.5469 0C36.0023 0 38 2.05024 38 4.57031C38 7.03546 36.0881 9.04975 33.7064 9.13644L31.479 16.6671C31.2845 17.3247 30.6958 17.7484 30.0592 17.7484C29.9164 17.7484 29.7712 17.7271 29.6275 17.6823C28.843 17.438 28.4001 16.5872 28.6382 15.7821ZM32.0625 4.57031C32.0625 5.41034 32.7284 6.09375 33.5469 6.09375C34.3654 6.09375 35.0312 5.41034 35.0312 4.57031C35.0312 3.73029 34.3654 3.04688 33.5469 3.04688C32.7284 3.04688 32.0625 3.73029 32.0625 4.57031ZM10.837 8.89284C10.4784 8.13622 10.7854 7.22452 11.5227 6.85653L15.0242 5.10877C15.0038 4.93205 14.9922 4.75259 14.9922 4.57031C14.9922 2.05024 16.9899 0 19.4453 0C21.9008 0 23.8984 2.05024 23.8984 4.57031C23.8984 7.09038 21.9008 9.14062 19.4453 9.14062C18.2379 9.14062 17.1419 8.64421 16.339 7.84068L12.8211 9.59659C12.6121 9.70094 12.3908 9.75038 12.173 9.75038C11.6227 9.75031 11.0939 9.43495 10.837 8.89284ZM17.9609 4.57031C17.9609 5.41034 18.6268 6.09375 19.4453 6.09375C20.2638 6.09375 20.9297 5.41034 20.9297 4.57031C20.9297 3.73029 20.2638 3.04688 19.4453 3.04688C18.6268 3.04688 17.9609 3.73029 17.9609 4.57031Z" fill="white"/>
</svg>

<svg xmlns="http://www.w3.org/2000/svg" width="38" height="39" fill="none"><path fill="#D34214" d="M26.8 33.44c1.02 0 1.85.85 1.85 1.9 0 1.06-.83 1.9-1.86 1.9a1.88 1.88 0 01-1.85-1.9c0-1.05.83-1.9 1.85-1.9zM13.2 20.04c0 1.04.83 1.9 1.86 1.9 1.02 0 1.85-.86 1.85-1.9 0-1.06-.83-1.91-1.85-1.91-1.03 0-1.86.85-1.86 1.9z"/><path fill="#fff" d="M38 37.1c0 1.05-.83 1.9-1.86 1.9a1.88 1.88 0 01-1.85-1.9c0-1.06.83-1.9 1.85-1.9 1.03 0 1.86.84 1.86 1.9zm-5.94-12.65c0 2.52-2 4.57-4.45 4.57a4.52 4.52 0 01-4.45-4.57c0-1.34.56-2.54 1.46-3.38l-3.2-7.84c-.32-.77.04-1.67.8-1.99.75-.33 1.62.04 1.93.82l3.2 7.83c.09 0 .17 0 .26 0a4.52 4.52 0 014.45 4.56zm-2.97 0a1.5 1.5 0 00-1.48-1.52 1.5 1.5 0 00-1.48 1.52c0 .84.66 1.52 1.48 1.52a1.5 1.5 0 001.48-1.52zm-22.93-2.9c-1.02 0-1.86.86-1.86 1.91 0 1.05.84 1.9 1.86 1.9s1.86-.85 1.86-1.9c0-1.05-.84-1.9-1.86-1.9zM0 12.27C0 9.74 2 7.7 4.45 7.7a4.52 4.52 0 014.46 4.57c0 2.52-2 4.57-4.46 4.57A4.52 4.52 0 010 12.26zm2.97 0c0 .84.66 1.53 1.48 1.53a1.5 1.5 0 001.49-1.53 1.5 1.5 0 00-1.49-1.52 1.5 1.5 0 00-1.48 1.52zm17.92 15.02c.32.78-.04 1.67-.79 2L8.9 34.16c0 .1 0 .18 0 .27 0 2.52-2 4.57-4.45 4.57A4.52 4.52 0 010 34.43c0-2.52 2-4.57 4.45-4.57 1.3 0 2.48.58 3.3 1.5l11.19-4.88c.75-.33 1.63.03 1.95.8zM5.94 34.43a1.5 1.5 0 00-1.49-1.52 1.5 1.5 0 00-1.48 1.52c0 .84.66 1.52 1.48 1.52a1.5 1.5 0 001.49-1.52zm22.7-18.65l2.23-7.56A4.6 4.6 0 0133.55 0 4.52 4.52 0 0138 4.57a4.52 4.52 0 01-4.3 4.57l-2.22 7.53a1.49 1.49 0 01-1.85 1.01 1.53 1.53 0 01-1-1.9zm3.42-11.21c0 .84.67 1.52 1.49 1.52a1.5 1.5 0 001.48-1.52 1.5 1.5 0 00-1.48-1.52 1.5 1.5 0 00-1.49 1.52zM10.84 8.89a1.54 1.54 0 01.68-2.03l3.5-1.75A4.52 4.52 0 0119.44 0a4.52 4.52 0 014.46 4.56c0 2.52-2 4.57-4.45 4.57-1.21 0-2.3-.5-3.11-1.3L12.82 9.6a1.48 1.48 0 01-1.98-.7zm7.12-4.32c0 .84.67 1.52 1.49 1.52a1.5 1.5 0 001.48-1.52 1.5 1.5 0 00-1.48-1.52 1.5 1.5 0 00-1.49 1.52z"/></svg>
